_site/images/cards.svg

<svg height="403" viewBox="0 0 548 403" width="548" xmlns="http://www.w3.org/2000/svg" xmlns:xlink="http://www.w3.org/1999/xlink"><defs><rect id="a" height="173" rx="12" width="339"/><filter id="b" height="218.5%" width="149.3%" x="-24.6%" y="-50%"><feOffset dx="0" dy="36" in="SourceAlpha" result="shadowOffsetOuter1"/><feGaussianBlur in="shadowOffsetOuter1" result="shadowBlurOuter1" stdDeviation="21.5"/><feColorMatrix in="shadowBlurOuter1" result="shadowMatrixOuter1" type="matrix" values="0 0 0 0 0   0 0 0 0 0   0 0 0 0 0  0 0 0 0.201115263 0"/><feOffset dx="0" dy="-3" in="SourceAlpha" result="shadowOffsetOuter2"/><feGaussianBlur in="shadowOffsetOuter2" result="shadowBlurOuter2" stdDeviation="22"/><feColorMatrix in="shadowBlurOuter2" result="shadowMatrixOuter2" type="matrix" values="0 0 0 0 0   0 0 0 0 0   0 0 0 0 0  0 0 0 0.0313632246 0"/><feMerge><feMergeNode in="shadowMatrixOuter1"/><feMergeNode in="shadowMatrixOuter2"/></feMerge></filter><rect id="c" height="173" rx="12" width="339"/><filter id="d" height="218.5%" width="149.3%" x="-24.6%" y="-50%"><feOffset dx="0" dy="36" in="SourceAlpha" result="shadowOffsetOuter1"/><feGaussianBlur in="shadowOffsetOuter1" result="shadowBlurOuter1" stdDeviation="21.5"/><feColorMatrix in="shadowBlurOuter1" result="shadowMatrixOuter1" type="matrix" values="0 0 0 0 0   0 0 0 0 0   0 0 0 0 0  0 0 0 0.201115263 0"/><feOffset dx="0" dy="-3" in="SourceAlpha" result="shadowOffsetOuter2"/><feGaussianBlur in="shadowOffsetOuter2" result="shadowBlurOuter2" stdDeviation="22"/><feColorMatrix in="shadowBlurOuter2" result="shadowMatrixOuter2" type="matrix" values="0 0 0 0 0   0 0 0 0 0   0 0 0 0 0  0 0 0 0.0313632246 0"/><feMerge><feMergeNode in="shadowMatrixOuter1"/><feMergeNode in="shadowMatrixOuter2"/></feMerge></filter><rect id="e" height="173" rx="12" width="339"/><linearGradient id="f" x1="7.6875%" x2="100%" y1="-12.152344%" y2="116.397135%"><stop offset="0" stop-color="#3baca5"/><stop offset="1" stop-color="#075655"/></linearGradient><mask id="g" fill="#fff"><use fill="#fff" fill-rule="evenodd" xlink:href="#e"/></mask></defs><g fill="none" fill-rule="evenodd"><g transform="translate(44 47)"><use fill="#000" filter="url(#b)" xlink:href="#a"/><use fill="#fff" fill-rule="evenodd" xlink:href="#a"/><g fill="#e1e8ee"><path d="m96.5 40h134.5c2.209139 0 4 1.790861 4 4 0 2.209139-1.790861 4-4 4h-134.5c-2.209139 0-4-1.790861-4-4 0-2.209139 1.790861-4 4-4z"/><path d="m96.5 58h77.089928c2.209139 0 4 1.790861 4 4 0 2.209139-1.790861 4-4 4h-77.089928c-2.209139 0-4-1.790861-4-4 0-2.209139 1.790861-4 4-4z"/><path d="m40 98h191c2.209139 0 4 1.790861 4 4 0 2.209139-1.790861 4-4 4h-191c-2.209139 0-4-1.790861-4-4 0-2.209139 1.790861-4 4-4z"/><rect height="8" rx="4" width="199" x="36" y="116"/><path d="m40 134h167c2.209139 0 4 1.790861 4 4 0 2.209139-1.790861 4-4 4h-167c-2.209139 0-4-1.790861-4-4 0-2.209139 1.790861-4 4-4z"/></g><rect fill="#3377c6" height="41" rx="6" width="41" x="36" y="40"/><path d="m50.4322142 67.6865928c1.8267967.2449376 4.5867561.3571713 6.5674329.3571713 1.9806767 0 4.741342-.1122337 6.5674328-.3571713-.1475272-2.0484404-1.0933957-3.1404244-3.0811312-3.6062999h-.0007058c-1.2677461-.2978779-2.0971457-1.2444523-2.3357304-2.6660784l-.0719989-.4270525.3494066-.2569374c.83787-.6183439 1.4046852-1.7209159 1.516213-2.9491331.1207041-1.3263335-.2724666-2.6272555-1.0510434-3.479243-.3705828-.4058764-.9995147-.8901046-1.8924427-.8901046-.8922222 0-1.52186.4842282-1.8924428.8901046-.7785768.8519875-1.1717475 2.1529095-1.0510434 3.479243.1115278 1.2282172.678343 2.3307892 1.5169189 2.9491331l.3487008.2569374-.0712931.4270525c-.2385847 1.4216261-1.0679843 2.3682005-2.3364362 2.6660784-1.9877355.4658755-2.9343098 1.5578595-3.0818371 3.6062999m6.5674329 1.7689152c-2.2736137 0-5.5636829-.1468214-7.4151851-.4701107l-.584462-.1023515v-.5936383c0-3.0959545 1.3708034-4.9227511 4.1921736-5.5841532.3952883-.0924692.9232806-.314113 1.1766886-1.1399832-.9663387-.8802224-1.5846826-2.1867914-1.7187982-3.6564168-.1552919-1.714563.3734062-3.418538 1.4145674-4.5592271.7948118-.8703401 1.8373847-1.3496272 2.9350157-1.3496272 1.0976309 0 2.1402038.4792871 2.9350156 1.3496272 1.0418671 1.1406891 1.5705652 2.8446641 1.4145675 4.5592271-.1334098 1.4696254-.7524596 2.7761944-1.7180924 3.6564168.2527021.8251643.7806944 1.047514 1.1766886 1.1399832 2.8206644.6614021 4.1921736 2.4881987 4.1921736 5.5841532v.5936383l-.584462.1023515c-1.852208.3232893-5.1422773.4701107-7.4158909.4701107" fill="#fff"/></g><g transform="translate(165 151)"><use fill="#000" filter="url(#d)" xlink:href="#c"/><use fill="#fff" fill-rule="evenodd" xlink:href="#c"/><use fill="#fff" xlink:href="#e"/><g fill="#0b7a76" fill-opacity=".27" fill-rule="nonzero" mask="url(#g)"><path d="m127.97058 13.3558592c-1.926575-1.5423003-4.455319-2.1381348-6.877495-1.6205074-17.682977 3.6674433-36.1113939-.0562281-50.9262134-10.2902214-2.8066287-1.92684054-6.5271145-1.92684054-9.3337432 0-14.8148195 10.2339933-33.243236 13.9576647-50.92621314 10.2902214-2.422176-.5176274-4.95092059.0782071-6.87749501 1.6205074-1.92399123 1.5445869-3.0377966 3.8682448-3.02937281 6.3199785v60.3638974c-.01476878 23.5704859 11.48348156 45.6945239 30.86685266 59.3915929l29.8843533 21.066595c2.8424058 2.002769 6.6550874 2.002769 9.4974932 0l29.8843534-21.066595c19.383371-13.697069 30.881621-35.821107 30.866853-59.3915929v-60.3638974c.008423-2.4517337-1.105382-4.7753916-3.029373-6.3199785zm-13.970594 66.8354117c.01271 18.2916715-8.900202 35.4622621-23.9283263 46.0975611l-25.0716597 17.711168-25.0716597-17.711168c-15.0281246-10.635299-23.9410366-27.8058896-23.9283267-46.0975611v-50.9499359c17.120827 1.4511273 34.2676551-2.4826134 48.9999864-11.241335 14.7323313 8.7587216 31.8791594 12.6924623 48.999986 11.241335zm-36.1856589-19.6664737-21.7545423 22.4174294-7.1975995-7.4724765c-3.1711667-3.2556929-8.3126436-3.2556929-11.4838103.0000001-3.1711666 3.2556929-3.1711667 8.5342142-.0000001 11.7899072l12.9395047 13.2844026c1.5185043 1.571816 3.5855567 2.45594 5.7419052 2.45594s4.223401-.884124 5.7419052-2.45594l27.8199351-28.312383c3.1711666-3.2556931 3.1711665-8.5342143-.0000001-11.7899072-3.1711667-3.255693-8.3126436-3.2556931-11.4838103-.0000001z" transform="translate(248 57)"/></g><g fill="#e1e8ee"><path d="m96.5 40h134.5c2.209139 0 4 1.790861 4 4 0 2.209139-1.790861 4-4 4h-134.5c-2.209139 0-4-1.790861-4-4 0-2.209139 1.790861-4 4-4z"/><path d="m96.5 58h77.089928c2.209139 0 4 1.790861 4 4 0 2.209139-1.790861 4-4 4h-77.089928c-2.209139 0-4-1.790861-4-4 0-2.209139 1.790861-4 4-4z"/><path d="m40 98h191c2.209139 0 4 1.790861 4 4 0 2.209139-1.790861 4-4 4h-191c-2.209139 0-4-1.790861-4-4 0-2.209139 1.790861-4 4-4z"/><rect height="8" rx="4" width="199" x="36" y="116"/><path d="m40 134h167c2.209139 0 4 1.790861 4 4 0 2.209139-1.790861 4-4 4h-167c-2.209139 0-4-1.790861-4-4 0-2.209139 1.790861-4 4-4z"/></g><g transform="translate(36 40)"><rect fill="url(#f)" height="41" rx="6" width="41"/><path d="m15.63 1.65c-.235307-.19034783-.5441615-.26388462-.84-.2-2.1597545.45262903-4.4105551-.00693958-6.22-1.27-.3427946-.23780708-.7972054-.23780708-1.14 0-1.80944491 1.26306042-4.06024551 1.72262903-6.22 1.27-.2958385-.06388462-.60469303.00965217-.84.2-.23499146.19063005-.37102886.47741159-.37.78v7.45c-.00180382 2.9090256 1.40256364 5.6395331 3.77 7.33l3.65 2.6c.34716431.247178.81283569.247178 1.16 0l3.65-2.6c2.3674364-1.6904669 3.7718038-4.4209744 3.77-7.33v-7.45c.0010289-.30258841-.1350085-.58936995-.37-.78zm-1.63 8.23c.0015563 2.2617797-1.089821 4.3849369-2.93 5.7l-3.07 2.19-3.07-2.19c-1.84017903-1.3150631-2.93155631-3.4382203-2.93-5.7v-6.3c2.09642839.17943304 4.19604057-.30697712 6-1.39 1.80395943 1.08302288 3.9035716 1.56943304 6 1.39zm-4.46-2.29-2.69 2.7-.89-.9c-.39212217-.39212216-1.02787782-.39212216-1.41999999.00000001s-.39212217 1.02787779-.00000001 1.41999999l1.6 1.6c.1877666.1893127.44336246.2957983.71.2957983s.5222334-.1064856.71-.2957983l3.44-3.41c.3921222-.39212217.3921222-1.02787782 0-1.41999999s-1.02787783-.39212217-1.42-.00000001z" fill="#fff" fill-rule="nonzero" transform="translate(13 10)"/></g></g></g></svg>

<?xml version="1.0" encoding="UTF-8"?>
<svg width="548px" height="403px" viewBox="0 0 548 403" version="1.1" xmlns="http://www.w3.org/2000/svg" xmlns:xlink="http://www.w3.org/1999/xlink">
    <!-- Generator: Sketch 52.6 (67491) - http://www.bohemiancoding.com/sketch -->
    <title>Group 51</title>
    <desc>Created with Sketch.</desc>
    <defs>
        <rect id="path-1" x="0" y="0" width="339" height="173" rx="12"></rect>
        <filter x="-24.6%" y="-50.0%" width="149.3%" height="218.5%" filterUnits="objectBoundingBox" id="filter-2">
            <feOffset dx="0" dy="36" in="SourceAlpha" result="shadowOffsetOuter1"></feOffset>
            <feGaussianBlur stdDeviation="21.5" in="shadowOffsetOuter1" result="shadowBlurOuter1"></feGaussianBlur>
            <feColorMatrix values="0 0 0 0 0   0 0 0 0 0   0 0 0 0 0  0 0 0 0.201115263 0" type="matrix" in="shadowBlurOuter1" result="shadowMatrixOuter1"></feColorMatrix>
            <feOffset dx="0" dy="-3" in="SourceAlpha" result="shadowOffsetOuter2"></feOffset>
            <feGaussianBlur stdDeviation="22" in="shadowOffsetOuter2" result="shadowBlurOuter2"></feGaussianBlur>
            <feColorMatrix values="0 0 0 0 0   0 0 0 0 0   0 0 0 0 0  0 0 0 0.0313632246 0" type="matrix" in="shadowBlurOuter2" result="shadowMatrixOuter2"></feColorMatrix>
            <feMerge>
                <feMergeNode in="shadowMatrixOuter1"></feMergeNode>
                <feMergeNode in="shadowMatrixOuter2"></feMergeNode>
            </feMerge>
        </filter>
        <rect id="path-3" x="0" y="0" width="339" height="173" rx="12"></rect>
        <filter x="-24.6%" y="-50.0%" width="149.3%" height="218.5%" filterUnits="objectBoundingBox" id="filter-4">
            <feOffset dx="0" dy="36" in="SourceAlpha" result="shadowOffsetOuter1"></feOffset>
            <feGaussianBlur stdDeviation="21.5" in="shadowOffsetOuter1" result="shadowBlurOuter1"></feGaussianBlur>
            <feColorMatrix values="0 0 0 0 0   0 0 0 0 0   0 0 0 0 0  0 0 0 0.201115263 0" type="matrix" in="shadowBlurOuter1" result="shadowMatrixOuter1"></feColorMatrix>
            <feOffset dx="0" dy="-3" in="SourceAlpha" result="shadowOffsetOuter2"></feOffset>
            <feGaussianBlur stdDeviation="22" in="shadowOffsetOuter2" result="shadowBlurOuter2"></feGaussianBlur>
            <feColorMatrix values="0 0 0 0 0   0 0 0 0 0   0 0 0 0 0  0 0 0 0.0313632246 0" type="matrix" in="shadowBlurOuter2" result="shadowMatrixOuter2"></feColorMatrix>
            <feMerge>
                <feMergeNode in="shadowMatrixOuter1"></feMergeNode>
                <feMergeNode in="shadowMatrixOuter2"></feMergeNode>
            </feMerge>
        </filter>
        <rect id="path-5" x="0" y="0" width="339" height="173" rx="12"></rect>
        <linearGradient x1="7.6875%" y1="-12.1523438%" x2="100%" y2="116.397135%" id="linearGradient-7">
            <stop stop-color="#3BACA5" offset="0%"></stop>
            <stop stop-color="#075655" offset="100%"></stop>
        </linearGradient>
    </defs>
    <g id="Landing-page" stroke="none" stroke-width="1" fill="none" fill-rule="evenodd">
        <g id="1.1--Home" transform="translate(-131.000000, -4726.000000)">
            <g id="Benefit" transform="translate(92.000000, 4663.000000)">
                <g id="Group-52" transform="translate(83.000000, 110.000000)">
                    <g id="Group-51">
                        <g id="Group-31">
                            <g id="mcokup-2">
                                <g id="Group-4">
                                    <g id="Rectangle-5">
                                        <use fill="black" fill-opacity="1" filter="url(#filter-2)" xlink:href="#path-1"></use>
                                        <use fill="#FFFFFF" fill-rule="evenodd" xlink:href="#path-1"></use>
                                    </g>
                                </g>
                                <path d="M96.5,40 L231,40 C233.209139,40 235,41.790861 235,44 L235,44 C235,46.209139 233.209139,48 231,48 L96.5,48 C94.290861,48 92.5,46.209139 92.5,44 L92.5,44 C92.5,41.790861 94.290861,40 96.5,40 Z" id="Rectangle-7" fill="#E1E8EE"></path>
                                <path d="M96.5,58 L173.589928,58 C175.799067,58 177.589928,59.790861 177.589928,62 L177.589928,62 C177.589928,64.209139 175.799067,66 173.589928,66 L96.5,66 C94.290861,66 92.5,64.209139 92.5,62 L92.5,62 C92.5,59.790861 94.290861,58 96.5,58 Z" id="Rectangle-7-Copy" fill="#E1E8EE"></path>
                                <path d="M40,98 L231,98 C233.209139,98 235,99.790861 235,102 L235,102 C235,104.209139 233.209139,106 231,106 L40,106 C37.790861,106 36,104.209139 36,102 L36,102 C36,99.790861 37.790861,98 40,98 Z" id="Rectangle-7-Copy-3" fill="#E1E8EE"></path>
                                <rect id="Rectangle-7-Copy-2" fill="#E1E8EE" x="36" y="116" width="199" height="8" rx="4"></rect>
                                <path d="M40,134 L207,134 C209.209139,134 211,135.790861 211,138 L211,138 C211,140.209139 209.209139,142 207,142 L40,142 C37.790861,142 36,140.209139 36,138 L36,138 C36,135.790861 37.790861,134 40,134 Z" id="Rectangle-7-Copy-5" fill="#E1E8EE"></path>
                                <rect id="Rectangle-8" fill="#3377C6" x="36" y="40" width="41" height="41" rx="6"></rect>
                                <path d="M50.4322142,67.6865928 C52.2590109,67.9315304 55.0189703,68.0437641 56.9996471,68.0437641 C58.9803238,68.0437641 61.7409891,67.9315304 63.5670799,67.6865928 C63.4195527,65.6381524 62.4736842,64.5461684 60.4859487,64.0802929 L60.4852429,64.0802929 C59.2174968,63.782415 58.3880972,62.8358406 58.1495125,61.4142145 L58.0775136,60.987162 L58.4269202,60.7302246 C59.2647902,60.1118807 59.8316054,59.0093087 59.9431332,57.7810915 C60.0638373,56.454758 59.6706666,55.153836 58.8920898,54.3018485 C58.521507,53.8959721 57.8925751,53.4117439 56.9996471,53.4117439 C56.1074249,53.4117439 55.4777871,53.8959721 55.1072043,54.3018485 C54.3286275,55.153836 53.9354568,56.454758 54.0561609,57.7810915 C54.1676887,59.0093087 54.7345039,60.1118807 55.5730798,60.7302246 L55.9217806,60.987162 L55.8504875,61.4142145 C55.6119028,62.8358406 54.7825032,63.782415 53.5140513,64.0802929 C51.5263158,64.5461684 50.5797415,65.6381524 50.4322142,67.6865928 M56.9996471,69.455508 C54.7260334,69.455508 51.4359642,69.3086866 49.584462,68.9853973 L49,68.8830458 L49,68.2894075 C49,65.193453 50.3708034,63.3666564 53.1921736,62.7052543 C53.5874619,62.6127851 54.1154542,62.3911413 54.3688622,61.5652711 C53.4025235,60.6850487 52.7841796,59.3784797 52.650064,57.9088543 C52.4947721,56.1942913 53.0234702,54.4903163 54.0646314,53.3496272 C54.8594432,52.4792871 55.9020161,52 56.9996471,52 C58.097278,52 59.1398509,52.4792871 59.9346627,53.3496272 C60.9765298,54.4903163 61.5052279,56.1942913 61.3492302,57.9088543 C61.2158204,59.3784797 60.5967706,60.6850487 59.6311378,61.5652711 C59.8838399,62.3904354 60.4118322,62.6127851 60.8078264,62.7052543 C63.6284908,63.3666564 65,65.193453 65,68.2894075 L65,68.8830458 L64.415538,68.9853973 C62.56333,69.3086866 59.2732607,69.455508 56.9996471,69.455508" id="Fill-1" fill="#FFFFFF"></path>
                            </g>
                        </g>
                        <g id="Group-31" transform="translate(121.000000, 104.000000)">
                            <g id="mcokup-2">
                                <g id="Group-4">
                                    <g id="Rectangle-5">
                                        <use fill="black" fill-opacity="1" filter="url(#filter-4)" xlink:href="#path-3"></use>
                                        <use fill="#FFFFFF" fill-rule="evenodd" xlink:href="#path-3"></use>
                                    </g>
                                    <g id="shield-check">
                                        <mask id="mask-6" fill="white">
                                            <use xlink:href="#path-5"></use>
                                        </mask>
                                        <use id="Mask" fill="#FFFFFF" xlink:href="#path-5"></use>
                                        <g mask="url(#mask-6)" fill="#0B7A76" fill-opacity="0.27" fill-rule="nonzero" id="Shape">
                                            <g transform="translate(248.000000, 57.000000)">
                                                <path d="M127.97058,13.3558592 C126.044005,11.8135589 123.515261,11.2177244 121.093085,11.7353518 C103.410108,15.4027951 84.9816911,11.6791237 70.1668716,1.4451304 C67.3602429,-0.481710135 63.6397571,-0.481710135 60.8331284,1.4451304 C46.0183089,11.6791237 27.5898924,15.4027951 9.90691526,11.7353518 C7.48473926,11.2177244 4.95599467,11.8135589 3.02942025,13.3558592 C1.10542902,14.9004461 -0.00837634834,17.224104 4.74401212e-05,19.6758377 L4.74401212e-05,80.0397351 C-0.0147213427,103.610221 11.483529,125.734259 30.8669001,139.431328 L60.7512534,160.497923 C63.5936592,162.500692 67.4063408,162.500692 70.2487466,160.497923 L100.1331,139.431328 C119.516471,125.734259 131.014721,103.610221 130.999953,80.0397351 L130.999953,19.6758377 C131.008376,17.224104 129.894571,14.9004461 127.97058,13.3558592 Z M113.999986,80.1912709 C114.012696,98.4829424 105.099784,115.653533 90.0716597,126.288832 L65,144 L39.9283403,126.288832 C24.9002157,115.653533 15.9873037,98.4829424 16.0000136,80.1912709 L16.0000136,29.241335 C33.1208406,30.6924623 50.2676687,26.7587216 65,18 C79.7323313,26.7587216 96.8791594,30.6924623 113.999986,29.241335 L113.999986,80.1912709 Z M77.8143271,60.5247972 L56.0597848,82.9422266 L48.8621853,75.4697501 C45.6910186,72.2140572 40.5495417,72.2140572 37.378375,75.4697502 C34.2072084,78.7254431 34.2072083,84.0039644 37.3783749,87.2596574 L50.3178796,100.54406 C51.8363839,102.115876 53.9034363,103 56.0597848,103 C58.2161333,103 60.2831858,102.115876 61.80169,100.54406 L89.6216251,72.231677 C92.7927917,68.9759839 92.7927916,63.6974627 89.621625,60.4417698 C86.4504583,57.1860768 81.3089814,57.1860767 78.1378147,60.4417697 L77.8143271,60.5247972 Z"></path>
                                            </g>
                                        </g>
                                    </g>
                                </g>
                                <path d="M96.5,40 L231,40 C233.209139,40 235,41.790861 235,44 L235,44 C235,46.209139 233.209139,48 231,48 L96.5,48 C94.290861,48 92.5,46.209139 92.5,44 L92.5,44 C92.5,41.790861 94.290861,40 96.5,40 Z" id="Rectangle-7" fill="#E1E8EE"></path>
                                <path d="M96.5,58 L173.589928,58 C175.799067,58 177.589928,59.790861 177.589928,62 L177.589928,62 C177.589928,64.209139 175.799067,66 173.589928,66 L96.5,66 C94.290861,66 92.5,64.209139 92.5,62 L92.5,62 C92.5,59.790861 94.290861,58 96.5,58 Z" id="Rectangle-7-Copy" fill="#E1E8EE"></path>
                                <path d="M40,98 L231,98 C233.209139,98 235,99.790861 235,102 L235,102 C235,104.209139 233.209139,106 231,106 L40,106 C37.790861,106 36,104.209139 36,102 L36,102 C36,99.790861 37.790861,98 40,98 Z" id="Rectangle-7-Copy-3" fill="#E1E8EE"></path>
                                <rect id="Rectangle-7-Copy-2" fill="#E1E8EE" x="36" y="116" width="199" height="8" rx="4"></rect>
                                <path d="M40,134 L207,134 C209.209139,134 211,135.790861 211,138 L211,138 C211,140.209139 209.209139,142 207,142 L40,142 C37.790861,142 36,140.209139 36,138 L36,138 C36,135.790861 37.790861,134 40,134 Z" id="Rectangle-7-Copy-5" fill="#E1E8EE"></path>
                                <g id="Group-53" transform="translate(36.000000, 40.000000)">
                                    <rect id="Rectangle-8" fill="url(#linearGradient-7)" x="0" y="0" width="41" height="41" rx="6"></rect>
                                    <g id="shield-check" transform="translate(13.000000, 10.000000)" fill="#FFFFFF" fill-rule="nonzero">
                                        <path d="M15.63,1.65 C15.394693,1.45965217 15.0858385,1.38611538 14.79,1.45 C12.6302455,1.90262903 10.3794449,1.44306042 8.57,0.18 C8.2272054,-0.0578070772 7.7727946,-0.0578070772 7.43,0.18 C5.62055509,1.44306042 3.36975449,1.90262903 1.21,1.45 C0.914161495,1.38611538 0.605306971,1.45965217 0.37,1.65 C0.135008535,1.84063005 -0.00102886041,2.12741159 1.27675309e-15,2.43 L1.27675309e-15,9.88 C-0.00180382211,12.7890256 1.40256364,15.5195331 3.77,17.21 L7.42,19.81 C7.76716431,20.057178 8.23283569,20.057178 8.58,19.81 L12.23,17.21 C14.5974364,15.5195331 16.0018038,12.7890256 16,9.88 L16,2.43 C16.0010289,2.12741159 15.8649915,1.84063005 15.63,1.65 Z M14,9.88 C14.0015563,12.1417797 12.910179,14.2649369 11.07,15.58 L8,17.77 L4.93,15.58 C3.08982097,14.2649369 1.99844369,12.1417797 2,9.88 L2,3.58 C4.09642839,3.75943304 6.19604057,3.27302288 8,2.19 C9.80395943,3.27302288 11.9035716,3.75943304 14,3.58 L14,9.88 Z M9.54,7.59 L6.85,10.29 L5.96,9.39 C5.56787783,8.99787784 4.93212218,8.99787784 4.54000001,9.39000001 C4.14787784,9.78212218 4.14787784,10.4178778 4.54,10.81 L6.14,12.41 C6.3277666,12.5993127 6.58336246,12.7057983 6.85,12.7057983 C7.11663754,12.7057983 7.3722334,12.5993127 7.56,12.41 L11,9 C11.3921222,8.60787783 11.3921222,7.97212218 11,7.58000001 C10.6078778,7.18787784 9.97212217,7.18787784 9.58,7.58 L9.54,7.59 Z" id="Shape"></path>
                                    </g>
                                </g>
                            </g>
                        </g>
                    </g>
                </g>
            </g>
        </g>
    </g>
</svg>
